!! 00000] TT[WS
!!!OTL: Gonggunr kuqi
!!!ARE: Asia, China, Shanxi Wutai
!! Ethnic Group: Han
!! WII, 144
!!!SCT: J0620
!!!YEM: Copyright 1995, estate of Helmut Schaffrath.
**kern
*ICvox
*Ivox
*M2/4
*k[b-]
*F:
{8dd
16dd
16dd
8dd
8dd
=1
8ff
8ff
4cc
=2
16dd
16ff
16dd
16cc
8b-
8b-
=3
8dd
8dd
16g
16a
16g
16f
=4
2g}
=5
{8a
8a
8cc
8cc
=6
8.dd
16dd
8dd
8dd
=7
16g
16a
16g
16f
8e
8r
=8
8e
4.r}
=9
{4r
[4f
=10
8f]
8g
8a
16cc
16a
=11
4.g
8f
=12
16d
16d
16d
16d
16g
16f
8d
=13
2c}
==
!!!AGN: Xiaodiao. Qingge, Aisu
!!!ONB: ESAC (Essen Associative Code) Database: CHINA
!!!AMT: simple duple
!!!AIN: vox
!!!EED: Helmut Schaffrath
!!!EEV: 1.0
*-
!!!ONB: Tied note syntax fixed by Craig Sapp, 2004/05/03/
